src/view/frontend/web/svg/heroicons/outline/archive.svg

<svg  viewBox="0 0 24 24" fill="none" stroke="currentColor" xmlns="http://www.w3.org/2000/svg">
<path d="M5 8H19M5 8C3.89543 8 3 7.10457 3 6C3 4.89543 3.89543 4 5 4H19C20.1046 4 21 4.89543 21 6C21 7.10457 20.1046 8 19 8M5 8L5 18C5 19.1046 5.89543 20 7 20H17C18.1046 20 19 19.1046 19 18V8M10 12H14"  stroke-width="2" stroke-linecap="round" stroke-linejoin="round"/>
</svg>

<svg xmlns="http://www.w3.org/2000/svg" fill="none" viewBox="0 0 24 24" stroke="currentColor">
  <path stroke-linecap="round" stroke-linejoin="round" stroke-width="2" d="M5 8h14M5 8a2 2 0 110-4h14a2 2 0 110 4M5 8v10a2 2 0 002 2h10a2 2 0 002-2V8m-9 4h4"/>
</svg>
